src/assets/icons/linked-in.svg

<?xml version="1.0" encoding="UTF-8"?>
<svg width="32px" height="32px" viewBox="0 0 32 32" version="1.1" xmlns="http://www.w3.org/2000/svg" xmlns:xlink="http://www.w3.org/1999/xlink">
    <!-- Generator: Sketch 61.2 (89653) - https://sketch.com -->
    <title>Atoms/Ikoner/Social/Linked-in</title>
    <desc>Created with Sketch.</desc>
    <g id="Atoms/Ikoner/Social/Linked-in" stroke="none" stroke-width="1" fill="none" fill-rule="evenodd">
        <path d="M27.0788889,3 L4.92111111,3 C4.41733745,2.9943459 3.93190467,3.18894362 3.57161926,3.54110228 C3.21133386,3.89326095 3.0057137,4.37412851 3,4.87790292 L3,27.1223474 C3.0057137,27.6261218 3.21133386,28.1069893 3.57161926,28.459148 C3.93190467,28.8113067 4.41733745,29.0059044 4.92111111,29.0002503 L27.0788889,29.0002503 C27.5826625,29.0059044 28.0680953,28.8113067 28.4283807,28.459148 C28.7886661,28.1069893 28.9942863,27.6261218 29,27.1223474 L29,4.87790292 C28.9942863,4.37412851 28.7886661,3.89326095 28.4283807,3.54110228 C28.0680953,3.18894362 27.5826625,2.9943459 27.0788889,3 Z M10.7133333,25.1579029 L6.84944444,25.1579029 L6.84944444,12.7501251 L10.7133333,12.7501251 L10.7133333,25.1579029 Z M8.77777778,11.0529147 C7.87158025,11.0558262 7.05298618,10.5121957 6.70417198,9.6758159 C6.35535779,8.8394361 6.54512082,7.87526789 7.18486654,7.23345179 C7.82461227,6.59163569 8.78816232,6.39875841 9.62566477,6.74486844 C10.4631672,7.09097846 11.0094444,7.90781179 11.0094444,8.81401403 C11.0094444,10.0477032 10.0114606,11.0489233 8.77777778,11.0529147 L8.77777778,11.0529147 Z M25.1577778,25.1579029 L21.3011111,25.1579029 L21.3011111,19.1201251 C21.3011111,17.6756807 21.3011111,15.834014 19.2933333,15.834014 C17.2855556,15.834014 16.9822222,17.4012363 16.9822222,19.019014 L16.9822222,25.1579029 L13.1111111,25.1579029 L13.1111111,12.7501251 L16.8088889,12.7501251 L16.8088889,14.4401251 L16.8594444,14.4401251 C17.612785,13.1512468 19.0148773,12.3821784 20.5066667,12.4395696 C24.4138889,12.4395696 25.1361111,15.0106807 25.1361111,18.3473474 L25.1577778,25.1579029 Z" id="Shape" fill="#2A2859"></path>
    </g>
</svg>

<svg xmlns="http://www.w3.org/2000/svg" width="32" height="32" viewBox="0 0 32 32"><defs><style>.cls-1{fill-rule:evenodd;}</style></defs><g id="linked-in"><path id="Shape" class="cls-1" d="M27.08,3H4.92A1.89,1.89,0,0,0,3,4.88V27.12A1.89,1.89,0,0,0,4.92,29H27.08A1.89,1.89,0,0,0,29,27.12V4.88A1.89,1.89,0,0,0,27.08,3ZM10.71,25.16H6.85V12.75h3.86ZM8.78,11.05A2.24,2.24,0,0,1,6.7,9.68,2.24,2.24,0,0,1,9.63,6.74,2.26,2.26,0,0,1,11,8.81a2.23,2.23,0,0,1-2.23,2.24ZM25.16,25.16H21.3v-6c0-1.44,0-3.29-2-3.29S17,17.4,17,19v6.14H13.11V12.75h3.7v1.69h.05a4,4,0,0,1,3.65-2c3.9,0,4.63,2.57,4.63,5.91Z"/></g></svg>
